!!!!SEGMENT: pl-kk--kk-i-389--008-002_anonim--missa-no-8-kyrie.krn
!!!cenid: 17xx:2507
!!!COM: Anonim
!!!COM-rismID: pe30004985
!!!CDT:
!!!CNT:
!!!OPR: [Missa] No. 8.
!!!OTL: Kyrie
!!!OMV: 002
!!!PDT:
!!!AGN: Sacred; Mass
!!!YEC: Copyright 2022 Narodowy Instytut Fryderyka Chopina (https://polishscores.org)
!!!YEM: License CC-BY-4.0 (https://creativecommons.org/licenses/by/4.0)
!!!SMS-siglum: PL-Kk
!!!SMS-shelfmark: Kk.I.389
!!!SMS-variant:
!!!SMS-altvar:
!!!SMS-shelfwork: 008-002 M
!!!NIFC-rismSourceID: 1001146182
!!!NIFC-rismChildID: 1001147247
!!!NIFC-islandoraID: pl-kk:6976
!!!URL-pdf-islandora: https://repozytorium.nifc.pl/islandora/object/pl-kk%3A6976/datastream/PDF/view
!!!URL-scan: https://polish.musicsources.pl/pl/lokalizacje/galeria/rekopisy/5999/1 @EN{Scan on Polish Music Sources Website} @PL{Skany w portalu Dziedzictwo Muzyki Polskiej w otwartym dostępie}
!!!IIIF:
!!!ONB-nifc: UWAGA: S – skan 14-15 , A – 32-34, T – 51-53 , B – 70-71. Części Mszy: Rorate, Kyrie, Gloria, Graduale, Sanctus, Benedictus, Agnus, Dona.
!!!AIN: 1 alto 1 bass 1 soprn 1 tenor
!!!key: C
**kern	**text	**kern	**text	**kern	**text	**kern	**text
*part4	*part4	*part3	*part3	*part2	*part2	*part1	*part1
*staff4	*staff4	*staff3	*staff3	*staff2	*staff2	*staff1	*staff1
*I"Basso.	*	*I"Tenore.	*	*I"Alto.	*	*I"Soprano.	*
*I'B	*	*I'T	*	*I'A	*	*I'S	*
*ICvox	*	*ICvox	*	*ICvox	*	*ICvox	*
*Ibass	*	*Itenor	*	*Ialto	*	*Isoprn	*
*clefF4	*	*clefC4	*	*clefC3	*	*clefC1	*
*k[]	*	*k[]	*	*k[]	*	*k[]	*
*C:	*	*C:	*	*C:	*	*C:	*
*M3/2	*	*M3/2	*	*M3/2	*	*M3/2	*
=1	=1	=1	=1	=1	=1	=1	=1
*	*	*	*	*	*	*all\right:global	*
2C/	Ky-	1c	Ky-	1g	Ky-	1ee	Ky-
*2\right	*	*	*	*	*	*	*
!LO:TX:t=P:problem:2\right:global	!	!	!	!	!	!	!
2E\	.	.	.	.	.	.	.
*	*	*2\right	*	*2\right	*	*2\right	*
!	!	!LO:TX:t=P:problem:2\right:global	!	!LO:TX:t=P:problem:2\right:global	!	!LO:TX:t=P:problem:2\right:global	!
2G\	-e-	2B\	-ri-	2f\	-ri-	2dd\	-ri-
=2	=2	=2	=2	=2	=2	=2	=2
2c\	-ie	1G	-e	1e	-e	1cc	-e,
2E\	.	.	.	.	.	.	.
2G\	e-	2G/	e-	2d\	e-	2b\	e-
=3	=3	=3	=3	=3	=3	=3	=3
.	.	.	.	8qf/	.	8qdd/	.
2C/	-le-	2G/	-le-	4e\	-le-	4cc\	-le-
.	.	.	.	8d\L	.	8b\L	.
.	.	.	.	8e\J	.	8cc\J	.
.	.	.	.	8qqg/	.	8qqee/	.
2F\	.	2A/	.	2f\	.	2dd\	.
.	.	.	.	8qqe/	.	8qqcc/	.
2G\	-i-	2G/	-i-	2d\	-i-	2b\	-i-
=4	=4	=4	=4	=4	=4	=4	=4
2C/	-son	2G/	-son,	2e\	-son,	2cc\	-son,
2r	.	2r	.	2r	.	2r	.
2r	.	2G/	e-	4e\	e-	4cc\	e-
.	.	.	.	4f\	.	4dd\	.
=5	=5	=5	=5	=5	=5	=5	=5
2r	.	2G/	-lei-	2e\	-lei-	2cc\	-lei-
2r	.	2G/	-son	2d\	-son,	2b\	-son,
2G\	e-	2G/	e-	4f\	e-	4dd\	e-
.	.	.	.	4g\	.	4ee\	.
!	!	!	!	!LO:LB:g=original	!	!LO:LB:g=original	!
=6	=6	=6	=6	=6	=6	=6	=6
!	!	!	!	!LO:TX:t=P:problem:brakujący takt	!	!	!
2c\	-lei-	2G/	-lei-	1.ryy	.	2dd\	lei-
1C	-son	2G/	-son	.	.	2cc\	-son,
.	.	2c\	e-	.	.	2ee\	e-
!LO:LB:g=original	!	!LO:LB:g=original	!	!	!	!	!
=7	=7	=7	=7	=7	=7	=7	=7
2C/	e-	2c\	-le-	2g\	-le-	2ee\	-le-
2F\	-le-	1A	-i-	2f\	.	2dd\	.
2F#X\	-i-	.	.	2e\	-i-	2cc\	-i-
=8	=8	=8	=8	=8	=8	=8	=8
1G	-son	1G	-son,	1d	-son,	1b	-son,
2r	.	2r	.	2r	.	2r	.
=9	=9	=9	=9	=9	=9	=9	=9
!LO:TX:a:t=1.	!	!LO:TX:t=P:problem: takt dopisany ołóœkiem	!	!LO:TX:a:t=1.	!	!	!
1.r	.	1.r	.	1.r	.	1gg	Chri-
.	.	.	.	.	.	2gg\	-ste
=10	=10	=10	=10	=10	=10	=10	=10
2r	.	2r	.	2r	.	2.b\	Chri-
2r	.	2r	.	2r	.	.	.
.	.	.	.	.	.	4dd\	.
4r	.	4r	.	4r	.	4ff\	-ste
4G\	e-	4B\	e-	4g\	e-	4dd\	e-
=11	=11	=11	=11	=11	=11	=11	=11
2C/	-lei-	2c\	-lei-	2g\	-lei-	2cc\	-lei-
2G\	-son	2B\	-son,	2g\	-son	2dd\	-son
2r	.	2r	.	2r	.	2r	.
=12	=12	=12	=12	=12	=12	=12	=12
2GG/	Ky-	4B\	Ky-	4d\	Ky-	4dd\	Ky-
.	.	4d\	.	4f\	.	4b\	.
2G\	.	4c\	.	4e\	-ri-	2g\	.
.	.	4e\	-ri-	4g\	.	.	.
2G\	-ri-	2d\	-e	2f\	-e	2b\	-ri-
!	!	!	!	!	!	!LO:LB:g=original	!
=13	=13	=13	=13	=13	=13	=13	=13
2C/	-e	4c\	e-	4e\	Ky-	2g\	-e,
.	.	4e\	.	4g\	.	.	.
2G\	.	4d\	-le-	4f\	-ri-	2g\	Ky-
.	.	4f\	-i-	4a\	.	.	.
2c\	e-	2e\	-son	2g\	-e	2g\	-ri-
!LO:LB:g=original	!	!LO:PB:g=original	!	!LO:LB:g=original	!	!	!
=14	=14	=14	=14	=14	=14	=14	=14
.	.	8qqg/	.	.	.	.	.
2F\	-le-	4f\	e-	4a\	e-	4cc\	-e
.	.	8e\L	.	8g\L	.	4a\	e-
.	.	8d\J	.	8f\J	.	.	.
2G\	.	2c\	-le-	2e\	-le-	1g	-lei-
2GG/	-i-	2B\	-i-	2d\	-i-	.	.
=15	=15	=15	=15	=15	=15	=15	=15
2C/	-son,	1c	-son	1e	-son	1g	-son
2r	.	.	.	.	.	.	.
2C/	e-	2c\	e-	2e\	e-	2g\	e-
=16	=16	=16	=16	=16	=16	=16	=16
1.C	-lei-	1.c	-lei-	1.f	-lei-	1.a	-lei-
=17	=17	=17	=17	=17	=17	=17	=17
1.C	-son.	1.c	-son.	1e	-son.	1.g	-son.
.	.	.	.	2r	.	.	.
==	==	==	==	==	==	==	==
*-	*-	*-	*-	*-	*-	*-	*-
!!!system-decoration: [(s1,s2,s3,s4)]
!!!ENC: Filip Voros
!!!END: 2023-11-10
!!!ENC: Leszek Kubiak
!!!END: 2024-01-17
